X:6
T:Dunmore Lasses, The
R:reel
M:C|
K:Em
EDEF GFGA|Be~e2 Be~e2|EDEF G2BG|A2BA G~E3|
EDEF GFGA|Beed ~e3f|(3gfe (3fed edBG|AcBA GE~E2|
g2eg fedc|Beed ~e3f|(3gfe fd edBG|1 A2BA GE~E2:|2 A2BA GEFD||
